public/editor-src/editor/icons/fa/meta.svg

<svg xmlns="http://www.w3.org/2000/svg" viewBox="0 0 640 512"><!--! Font Awesome Free 6.4.0 by @fontawesome - https://fontawesome.com License - https://fontawesome.com/license/free (Icons: CC BY 4.0, Fonts: SIL OFL 1.1, Code: MIT License) Copyright 2023 Fonticons, Inc.--><path d="M640 317.9c0 91.3-39.4 148.5-110.3 148.5-62.6 0-95.8-34.6-156.9-136.6l-31.4-52.6c-8.3-12.5-14.5-24.2-21.2-35-20.1 33.8-47.1 83-47.1 83-67 116.6-104.6 141.2-156.9 141.2C43.42 466.4 0 409.1 0 320.5c0-143 79.78-278.1 183.9-278.1 50.2 0 93.8 24.68 144.8 89.5 37.1-50.1 78.1-89.5 130.6-89.5 99.1 0 180.7 125.7 180.7 275.5zM287.4 192.2c-42.9-62.1-70.9-80.5-104.4-80.5-61.9 0-113.78 106.1-113.78 210 0 48.5 18.48 75.7 49.58 75.7 30.2 0 49-19 103.2-103.8 0 0 24.7-39.1 65.4-101.4zm243.8 205.2c32.2 0 46.9-27.5 46.9-74.9 0-124.2-54.3-225.42-123.2-225.42-33.2 0-61.1 25.92-94.9 78.02 9.4 13.8 19.1 29 29.3 45.4l37.5 62.4c58.7 94.1 73.5 114.5 104.4 114.5z"/></svg>

<svg xmlns="http://www.w3.org/2000/svg" viewBox="0 0 640 512"><!--! Font Awesome Free 6.4.0 by @fontawesome - https://fontawesome.com License - https://fontawesome.com/license/free (Icons: CC BY 4.0, Fonts: SIL OFL 1.1, Code: MIT License) Copyright 2023 Fonticons, Inc. --><path d="M640 317.9C640 409.2 600.6 466.4 529.7 466.4C467.1 466.4 433.9 431.8 372.8 329.8L341.4 277.2C333.1 264.7 326.9 253 320.2 242.2C300.1 276 273.1 325.2 273.1 325.2C206.1 441.8 168.5 466.4 116.2 466.4C43.42 466.4 0 409.1 0 320.5C0 177.5 79.78 42.4 183.9 42.4C234.1 42.4 277.7 67.08 328.7 131.9C365.8 81.8 406.8 42.4 459.3 42.4C558.4 42.4 640 168.1 640 317.9H640zM287.4 192.2C244.5 130.1 216.5 111.7 183 111.7C121.1 111.7 69.22 217.8 69.22 321.7C69.22 370.2 87.7 397.4 118.8 397.4C149 397.4 167.8 378.4 222 293.6C222 293.6 246.7 254.5 287.4 192.2V192.2zM531.2 397.4C563.4 397.4 578.1 369.9 578.1 322.5C578.1 198.3 523.8 97.08 454.9 97.08C421.7 97.08 393.8 123 360 175.1C369.4 188.9 379.1 204.1 389.3 220.5L426.8 282.9C485.5 377 500.3 397.4 531.2 397.4L531.2 397.4z"/></svg>
